SVG Logos/APIs/Kong/kong-insomnia.svg

<?xml version="1.0" encoding="UTF-8"?> <svg xmlns="http://www.w3.org/2000/svg" width="121" height="16" viewBox="0 0 121 16" fill="none"><path fill-rule="evenodd" clip-rule="evenodd" d="M32.7364 10.4215H35.9584V5.42531H32.7364V10.4215ZM35.9401 3.46267H38.4144V12.7414C38.4144 14.2759 38.2542 14.5436 37.8448 14.954C37.5244 15.293 37.0081 15.4536 36.1181 15.4536H32.5044L31.383 14.2046V13.6871H35.9401V12.4202H32.8249C31.8814 12.4202 31.4008 12.2417 31.0091 11.8492C30.4929 11.3139 30.2793 10.154 30.2793 7.95927C30.2793 5.7645 30.5285 4.55113 31.0625 3.99798C31.472 3.60542 31.9704 3.44482 32.8605 3.44482L34.7118 3.46267L35.9401 4.58682V3.46267ZM6.74664 1H9.66603L5.46496 6.3531L9.84404 12.4021H6.74664L3.41782 7.65569H2.63457V12.4021H0V1H2.63457V5.42523H3.41782L6.74664 1ZM25.972 6.28192V5.46111H25.0819C25.0641 5.46111 25.0641 5.46111 25.0463 5.46111H24.3521C24.3343 5.46111 24.3343 5.46111 24.3165 5.46111H22.9458V6.28192V12.3666H20.4892V3.46262H22.1091H22.9458V3.62321V4.58677L24.174 3.46262H24.8861C24.9929 3.44478 25.1175 3.44478 25.2421 3.44478H26.3102C27.0578 3.44478 27.5385 3.60537 27.8767 3.9444C28.2505 4.30127 28.3929 4.76521 28.3929 6.08564V12.3666H25.9364V6.38898C25.972 6.35329 25.972 6.31761 25.972 6.28192ZM13.0301 10.4035H16.2521V5.40731H13.0301V10.4035ZM13.1374 12.3667C12.2473 12.3667 11.7667 12.2239 11.3928 11.8135C10.8232 11.2247 10.5918 10.4217 10.5918 7.90574C10.5918 5.37194 10.8232 4.58682 11.3928 3.98013C11.7667 3.58757 12.2473 3.44482 13.1374 3.44482H16.128C17.018 3.44482 17.4986 3.58757 17.8725 3.98013C18.4421 4.58682 18.6735 5.37194 18.6735 7.90574C18.6735 10.4395 18.4421 11.2247 17.8725 11.8135C17.4808 12.2239 17.018 12.3667 16.128 12.3667H13.1374Z" fill="#032140"></path><path d="M46.3942 0.400484V13.0767H44V0.400484H46.3942Z" fill="url(#paint0_linear_3227_3365)"></path><path d="M51.0607 5.66771V13.0767H48.7623V3.65659H50.9214L51.0607 5.66771ZM50.695 8.02709H50.016C50.0218 7.3422 50.1146 6.72116 50.2946 6.16397C50.4745 5.60677 50.727 5.12793 51.052 4.72745C51.3828 4.32696 51.7746 4.01935 52.2273 3.80459C52.68 3.58984 53.185 3.48247 53.7422 3.48247C54.1949 3.48247 54.6041 3.54631 54.9698 3.674C55.3354 3.80169 55.6489 4.00484 55.91 4.28343C56.177 4.56203 56.3802 4.92769 56.5195 5.38041C56.6646 5.82733 56.7371 6.37872 56.7371 7.03458V13.0767H54.4213V7.01717C54.4213 6.58767 54.3574 6.24813 54.2297 5.99855C54.1079 5.74897 53.9279 5.57195 53.69 5.46747C53.4578 5.363 53.1705 5.31076 52.8281 5.31076C52.474 5.31076 52.1635 5.38331 51.8965 5.52842C51.6353 5.66771 51.4148 5.86215 51.2348 6.11173C51.0607 6.36131 50.9272 6.64861 50.8343 6.97364C50.7415 7.29867 50.695 7.64982 50.695 8.02709Z" fill="url(#paint1_linear_3227_3365)"></path><path d="M63.9458 10.4996C63.9458 10.3023 63.8936 10.1253 63.7891 9.96856C63.6846 9.81185 63.4873 9.66965 63.1971 9.54196C62.9127 9.40846 62.4948 9.28368 61.9434 9.16759C61.4559 9.06312 61.006 8.93253 60.594 8.77582C60.1819 8.61911 59.8278 8.43047 59.5318 8.20992C59.2358 7.98355 59.0036 7.71947 58.8353 7.41765C58.6728 7.11004 58.5915 6.75599 58.5915 6.3555C58.5915 5.96663 58.6757 5.60097 58.844 5.25852C59.0123 4.91028 59.2561 4.60556 59.5753 4.34438C59.8946 4.07739 60.2834 3.86844 60.742 3.71753C61.2005 3.56082 61.717 3.48247 62.2917 3.48247C63.0926 3.48247 63.7804 3.61306 64.355 3.87424C64.9354 4.13543 65.3794 4.49528 65.6871 4.95381C65.9947 5.40653 66.1485 5.91729 66.1485 6.48609H63.8501C63.8501 6.23652 63.792 6.01016 63.6759 5.80701C63.5657 5.60387 63.3944 5.44135 63.1623 5.31947C62.9301 5.19178 62.637 5.12793 62.2829 5.12793C61.9637 5.12793 61.6938 5.18017 61.4733 5.28464C61.2585 5.38912 61.096 5.52551 60.9857 5.69383C60.8755 5.86215 60.8203 6.04788 60.8203 6.25103C60.8203 6.40193 60.8493 6.53833 60.9074 6.66022C60.9712 6.7763 61.0728 6.88368 61.2121 6.98235C61.3514 7.08102 61.54 7.17098 61.778 7.25224C62.0218 7.33349 62.3207 7.41185 62.6747 7.4873C63.377 7.6266 63.9894 7.81233 64.5117 8.0445C65.0399 8.27086 65.452 8.57267 65.748 8.94994C66.044 9.32721 66.192 9.80895 66.192 10.3952C66.192 10.8131 66.1021 11.1961 65.9221 11.5444C65.7422 11.8868 65.481 12.1857 65.1386 12.4411C64.7961 12.6965 64.3869 12.8967 63.911 13.0418C63.4351 13.1811 62.8982 13.2508 62.3004 13.2508C61.4356 13.2508 60.7042 13.097 60.1064 12.7894C59.5086 12.4759 59.0559 12.0813 58.7482 11.6053C58.4406 11.1236 58.2868 10.6244 58.2868 10.1079H60.4895C60.5069 10.4735 60.6056 10.7666 60.7855 10.9872C60.9654 11.2077 61.1918 11.3674 61.4646 11.466C61.7432 11.5589 62.0363 11.6053 62.3439 11.6053C62.6921 11.6053 62.9852 11.5589 63.2232 11.466C63.4612 11.3674 63.6411 11.2368 63.763 11.0742C63.8849 10.9059 63.9458 10.7144 63.9458 10.4996Z" fill="url(#paint2_linear_3227_3365)"></path><path d="M67.5328 8.46239V8.27956C67.5328 7.58888 67.6314 6.95333 67.8288 6.37291C68.0261 5.7867 68.3134 5.27884 68.6907 4.84933C69.068 4.41983 69.5294 4.08609 70.075 3.84813C70.6206 3.60435 71.2416 3.48247 71.9381 3.48247C72.6462 3.48247 73.273 3.60435 73.8186 3.84813C74.37 4.08609 74.8343 4.41983 75.2116 4.84933C75.5889 5.27884 75.8762 5.7867 76.0735 6.37291C76.2709 6.95333 76.3695 7.58888 76.3695 8.27956V8.46239C76.3695 9.14728 76.2709 9.78283 76.0735 10.369C75.8762 10.9495 75.5889 11.4573 75.2116 11.8926C74.8343 12.3221 74.3729 12.6559 73.8273 12.8938C73.2817 13.1318 72.6578 13.2508 71.9555 13.2508C71.259 13.2508 70.6351 13.1318 70.0837 12.8938C69.5323 12.6559 69.068 12.3221 68.6907 11.8926C68.3134 11.4573 68.0261 10.9495 67.8288 10.369C67.6314 9.78283 67.5328 9.14728 67.5328 8.46239ZM69.8312 8.27956V8.46239C69.8312 8.87449 69.8718 9.26046 69.9531 9.62031C70.0343 9.98017 70.1591 10.2965 70.3274 10.5693C70.4958 10.8421 70.7134 11.0568 70.9804 11.2135C71.2532 11.3644 71.5782 11.4399 71.9555 11.4399C72.327 11.4399 72.6462 11.3644 72.9132 11.2135C73.1802 11.0568 73.3978 10.8421 73.5661 10.5693C73.7403 10.2965 73.868 9.98017 73.9492 9.62031C74.0305 9.26046 74.0711 8.87449 74.0711 8.46239V8.27956C74.0711 7.87328 74.0305 7.49311 73.9492 7.13906C73.868 6.7792 73.7403 6.46288 73.5661 6.19008C73.3978 5.91149 73.1773 5.69383 72.9045 5.53712C72.6375 5.37461 72.3154 5.29335 71.9381 5.29335C71.5666 5.29335 71.2474 5.37461 70.9804 5.53712C70.7134 5.69383 70.4958 5.91149 70.3274 6.19008C70.1591 6.46288 70.0343 6.7792 69.9531 7.13906C69.8718 7.49311 69.8312 7.87328 69.8312 8.27956Z" fill="url(#paint3_linear_3227_3365)"></path><path d="M80.3308 5.58936V13.0767H78.0324V3.65659H80.2002L80.3308 5.58936ZM79.9913 8.02709H79.2861C79.2861 7.37122 79.3644 6.76759 79.5212 6.2162C79.6837 5.66481 79.9216 5.18597 80.2351 4.77969C80.5485 4.36759 80.9345 4.04837 81.393 3.82201C81.8573 3.59565 82.3942 3.48247 83.0036 3.48247C83.4273 3.48247 83.8162 3.54631 84.1703 3.674C84.5243 3.79589 84.829 3.99033 85.0844 4.25732C85.3456 4.5185 85.5458 4.86094 85.6851 5.28464C85.8244 5.70254 85.8941 6.20459 85.8941 6.79081V13.0767H83.5956V7.02588C83.5956 6.58476 83.5318 6.23942 83.4041 5.98984C83.2822 5.74027 83.1052 5.56614 82.873 5.46747C82.6409 5.363 82.3623 5.31076 82.0372 5.31076C81.6774 5.31076 81.3669 5.38331 81.1057 5.52842C80.8503 5.66771 80.6385 5.86215 80.4701 6.11173C80.3076 6.36131 80.1857 6.64861 80.1045 6.97364C80.029 7.29867 79.9913 7.64982 79.9913 8.02709ZM85.72 7.60048L84.771 7.77461C84.7768 7.18259 84.858 6.62829 85.0148 6.11173C85.1715 5.58936 85.4007 5.13374 85.7025 4.74486C86.0102 4.35018 86.3903 4.04256 86.843 3.82201C87.3016 3.59565 87.8297 3.48247 88.4276 3.48247C88.8919 3.48247 89.3098 3.54921 89.6813 3.68271C90.0585 3.8104 90.3807 4.01644 90.6476 4.30085C90.9146 4.57944 91.1178 4.9422 91.2571 5.38912C91.4022 5.83603 91.4747 6.38162 91.4747 7.02588V13.0767H89.1589V7.01717C89.1589 6.55865 89.095 6.2075 88.9674 5.96372C88.8455 5.71995 88.6684 5.55163 88.4363 5.45877C88.2041 5.3601 87.9313 5.31076 87.6179 5.31076C87.2987 5.31076 87.0201 5.37171 86.7821 5.49359C86.5499 5.60967 86.3526 5.77219 86.1901 5.98114C86.0334 6.19008 85.9144 6.43386 85.8331 6.71245C85.7577 6.98525 85.72 7.28126 85.72 7.60048Z" fill="url(#paint4_linear_3227_3365)"></path><path d="M95.793 5.66771V13.0767H93.4946V3.65659H95.6537L95.793 5.66771ZM95.4273 8.02709H94.7482C94.7541 7.3422 94.8469 6.72116 95.0268 6.16397C95.2068 5.60677 95.4592 5.12793 95.7843 4.72745C96.1151 4.32696 96.5069 4.01935 96.9596 3.80459C97.4123 3.58984 97.9173 3.48247 98.4745 3.48247C98.9272 3.48247 99.3364 3.54631 99.7021 3.674C100.068 3.80169 100.381 4.00484 100.642 4.28343C100.909 4.56203 101.112 4.92769 101.252 5.38041C101.397 5.82733 101.469 6.37872 101.469 7.03458V13.0767H99.1536V7.01717C99.1536 6.58767 99.0897 6.24813 98.962 5.99855C98.8401 5.74897 98.6602 5.57195 98.4222 5.46747C98.1901 5.363 97.9028 5.31076 97.5603 5.31076C97.2063 5.31076 96.8958 5.38331 96.6288 5.52842C96.3676 5.66771 96.147 5.86215 95.9671 6.11173C95.793 6.36131 95.6595 6.64861 95.5666 6.97364C95.4738 7.29867 95.4273 7.64982 95.4273 8.02709Z" fill="url(#paint5_linear_3227_3365)"></path><path d="M105.936 3.65659V13.0767H103.629V3.65659H105.936ZM103.472 1.19274C103.472 0.850302 103.588 0.565901 103.82 0.339541C104.058 0.11318 104.377 0 104.778 0C105.178 0 105.495 0.11318 105.727 0.339541C105.965 0.565901 106.084 0.850302 106.084 1.19274C106.084 1.52938 105.965 1.81088 105.727 2.03724C105.495 2.2636 105.178 2.37678 104.778 2.37678C104.377 2.37678 104.058 2.2636 103.82 2.03724C103.588 1.81088 103.472 1.52938 103.472 1.19274Z" fill="url(#paint6_linear_3227_3365)"></path><path d="M113.318 11.0742V6.72987C113.318 6.41064 113.263 6.13495 113.153 5.90278C113.043 5.67062 112.874 5.49069 112.648 5.363C112.422 5.23531 112.134 5.17146 111.786 5.17146C111.479 5.17146 111.209 5.2237 110.977 5.32817C110.75 5.43265 110.576 5.58065 110.454 5.77219C110.332 5.95792 110.271 6.17267 110.271 6.41644H107.964C107.964 6.02757 108.057 5.65901 108.243 5.31076C108.429 4.95671 108.693 4.64329 109.035 4.3705C109.383 4.0919 109.798 3.87424 110.28 3.71753C110.768 3.56082 111.313 3.48247 111.917 3.48247C112.631 3.48247 113.266 3.60435 113.823 3.84813C114.386 4.08609 114.828 4.44595 115.147 4.92769C115.472 5.40943 115.634 6.01596 115.634 6.74728V10.8566C115.634 11.3267 115.663 11.7301 115.721 12.0667C115.785 12.3976 115.878 12.6849 116 12.9287V13.0767H113.658C113.548 12.8387 113.464 12.5369 113.406 12.1712C113.348 11.7998 113.318 11.4341 113.318 11.0742ZM113.641 7.3393L113.658 8.70617H112.204C111.844 8.70617 111.528 8.74389 111.255 8.81935C110.982 8.889 110.759 8.99347 110.585 9.13277C110.411 9.26626 110.28 9.42878 110.193 9.62031C110.106 9.80605 110.062 10.0179 110.062 10.2559C110.062 10.488 110.115 10.697 110.219 10.8827C110.329 11.0684 110.486 11.2164 110.689 11.3267C110.898 11.4312 111.142 11.4834 111.421 11.4834C111.827 11.4834 112.181 11.4022 112.483 11.2397C112.785 11.0713 113.02 10.8682 113.188 10.6302C113.356 10.3923 113.446 10.1659 113.458 9.95115L114.119 10.9437C114.038 11.1816 113.916 11.4341 113.754 11.7011C113.591 11.9681 113.382 12.2177 113.127 12.4498C112.872 12.682 112.564 12.8735 112.204 13.0244C111.844 13.1753 111.426 13.2508 110.95 13.2508C110.341 13.2508 109.795 13.1289 109.314 12.8851C108.832 12.6414 108.452 12.3076 108.173 11.8839C107.895 11.4602 107.755 10.9785 107.755 10.4387C107.755 9.93954 107.848 9.49843 108.034 9.11536C108.22 8.73229 108.495 8.41016 108.861 8.14897C109.227 7.88198 109.679 7.68174 110.219 7.54825C110.765 7.40895 111.389 7.3393 112.091 7.3393H113.641Z" fill="url(#paint7_linear_3227_3365)"></path><defs><linearGradient id="paint0_linear_3227_3365" x1="116.034" y1="6.53891" x2="42.6331" y2="6.53892" gradientUnits="userSpaceOnUse"><stop stop-color="#AA50FF"></stop><stop offset="1" stop-color="#4000BF"></stop></linearGradient><linearGradient id="paint1_linear_3227_3365" x1="116.034" y1="6.53891" x2="42.6331" y2="6.53892" gradientUnits="userSpaceOnUse"><stop stop-color="#AA50FF"></stop><stop offset="1" stop-color="#4000BF"></stop></linearGradient><linearGradient id="paint2_linear_3227_3365" x1="116.034" y1="6.53891" x2="42.6331" y2="6.53892" gradientUnits="userSpaceOnUse"><stop stop-color="#AA50FF"></stop><stop offset="1" stop-color="#4000BF"></stop></linearGradient><linearGradient id="paint3_linear_3227_3365" x1="116.034" y1="6.53891" x2="42.6331" y2="6.53892" gradientUnits="userSpaceOnUse"><stop stop-color="#AA50FF"></stop><stop offset="1" stop-color="#4000BF"></stop></linearGradient><linearGradient id="paint4_linear_3227_3365" x1="116.034" y1="6.53891" x2="42.6331" y2="6.53892" gradientUnits="userSpaceOnUse"><stop stop-color="#AA50FF"></stop><stop offset="1" stop-color="#4000BF"></stop></linearGradient><linearGradient id="paint5_linear_3227_3365" x1="116.034" y1="6.53891" x2="42.6331" y2="6.53892" gradientUnits="userSpaceOnUse"><stop stop-color="#AA50FF"></stop><stop offset="1" stop-color="#4000BF"></stop></linearGradient><linearGradient id="paint6_linear_3227_3365" x1="116.034" y1="6.53891" x2="42.6331" y2="6.53892" gradientUnits="userSpaceOnUse"><stop stop-color="#AA50FF"></stop><stop offset="1" stop-color="#4000BF"></stop></linearGradient><linearGradient id="paint7_linear_3227_3365" x1="116.034" y1="6.53891" x2="42.6331" y2="6.53892" gradientUnits="userSpaceOnUse"><stop stop-color="#AA50FF"></stop><stop offset="1" stop-color="#4000BF"></stop></linearGradient></defs></svg>

<svg xmlns="http://www.w3.org/2000/svg" fill="none" viewBox="0 0 121 16"><path fill="#032140" fill-rule="evenodd" d="M32.736 10.421h3.222V5.425h-3.222v4.997Zm3.204-6.958h2.474v9.278c0 1.535-.16 1.803-.57 2.213-.32.339-.836.5-1.726.5h-3.614l-1.121-1.25v-.517h4.557V12.42h-3.115c-.944 0-1.424-.178-1.816-.57-.516-.536-.73-1.696-.73-3.89 0-2.196.25-3.409.784-3.962.409-.393.907-.553 1.798-.553l1.85.018 1.23 1.124V3.463ZM6.747 1h2.919L5.465 6.353l4.379 6.05H6.747l-3.33-4.747h-.782v4.746H0V1h2.635v4.425h.783L6.747 1Zm19.225 5.282v-.82h-3.026v6.905h-2.457V3.463h2.457V4.587l1.228-1.124h.712c.107-.018.232-.018.356-.018h1.068c.748 0 1.229.16 1.567.5.373.356.516.82.516 2.14v6.282h-2.457V6.389c.036-.036.036-.071.036-.107ZM13.03 10.403h3.222V5.407H13.03v4.996Zm.107 1.964c-.89 0-1.37-.143-1.744-.554-.57-.588-.801-1.391-.801-3.907 0-2.534.231-3.32.8-3.926.375-.392.855-.535 1.745-.535h2.991c.89 0 1.37.143 1.744.535.57.607.802 1.392.802 3.926 0 2.534-.232 3.319-.802 3.907-.391.41-.854.554-1.744.554h-2.99Z" clip-rule="evenodd"/><path fill="url(#a)" d="M46.394.4v12.677H44V.4h2.394Z"/><path fill="url(#b)" d="M51.06 5.668v7.409h-2.298v-9.42h2.16l.139 2.01Zm-.365 2.36h-.679a6.214 6.214 0 0 1 .279-1.864c.18-.557.432-1.036.757-1.437.33-.4.723-.708 1.175-.922a3.49 3.49 0 0 1 1.515-.323c.453 0 .862.064 1.228.192.365.128.679.33.94.61.267.278.47.644.61 1.096.145.447.217.999.217 1.655v6.042h-2.316v-6.06c0-.43-.064-.769-.191-1.018a1.068 1.068 0 0 0-.54-.532c-.232-.104-.52-.156-.862-.156a1.92 1.92 0 0 0-.931.217c-.262.14-.482.334-.662.584-.174.25-.308.537-.4.862-.093.325-.14.676-.14 1.053Z"/><path fill="url(#c)" d="M63.946 10.5a.936.936 0 0 0-.157-.531c-.104-.157-.302-.3-.592-.427-.284-.134-.702-.258-1.254-.374a9.245 9.245 0 0 1-1.349-.392 4.365 4.365 0 0 1-1.062-.566 2.572 2.572 0 0 1-.697-.792 2.24 2.24 0 0 1-.243-1.063c0-.388.084-.754.252-1.096.168-.349.412-.653.731-.915.32-.267.708-.476 1.167-.626a4.775 4.775 0 0 1 1.55-.236c.8 0 1.488.131 2.063.392.58.261 1.024.621 1.332 1.08.308.453.462.963.462 1.532H63.85c0-.25-.058-.476-.174-.679a1.196 1.196 0 0 0-.514-.488c-.232-.127-.525-.191-.88-.191-.318 0-.588.052-.809.157-.215.104-.377.24-.487.409a.996.996 0 0 0-.166.557c0 .15.03.287.087.41a.99.99 0 0 0 .305.321c.14.099.328.189.566.27.244.081.543.16.897.235.702.14 1.314.325 1.837.557.528.227.94.529 1.236.906.296.377.444.859.444 1.445 0 .418-.09.801-.27 1.15-.18.342-.441.64-.783.896a3.972 3.972 0 0 1-1.228.6 5.732 5.732 0 0 1-1.61.21c-.865 0-1.597-.154-2.195-.462-.597-.313-1.05-.708-1.358-1.184-.307-.481-.461-.98-.461-1.497h2.203c.017.365.116.659.295.88.18.22.407.38.68.478.278.093.571.14.879.14.348 0 .641-.047.88-.14.237-.099.417-.23.539-.392a.955.955 0 0 0 .183-.574Z"/><path fill="url(#d)" d="M67.533 8.462V8.28c0-.691.098-1.327.296-1.907a4.41 4.41 0 0 1 .862-1.524 3.88 3.88 0 0 1 1.384-1c.546-.245 1.167-.367 1.863-.367.708 0 1.335.122 1.88.366a3.862 3.862 0 0 1 1.394 1.001c.377.43.664.938.861 1.524.198.58.297 1.216.297 1.907v.182c0 .685-.1 1.32-.297 1.907a4.518 4.518 0 0 1-.861 1.524 3.88 3.88 0 0 1-1.385 1c-.545.239-1.17.358-1.871.358-.697 0-1.32-.12-1.872-.357a3.862 3.862 0 0 1-1.393-1.001 4.518 4.518 0 0 1-.862-1.524 5.939 5.939 0 0 1-.296-1.907Zm2.298-.182v.182c0 .412.04.798.122 1.158.081.36.206.677.374.95.169.272.386.487.653.643.273.151.598.227.975.227.372 0 .691-.076.958-.226.267-.157.485-.372.653-.645.174-.273.302-.589.383-.949.082-.36.122-.746.122-1.158V8.28c0-.407-.04-.787-.122-1.14a2.957 2.957 0 0 0-.383-.95 1.828 1.828 0 0 0-.662-.653c-.266-.162-.589-.244-.966-.244-.371 0-.69.082-.958.244a1.852 1.852 0 0 0-.653.653c-.168.273-.293.59-.374.95a5.088 5.088 0 0 0-.122 1.14Z"/><path fill="url(#e)" d="M80.33 5.59v7.487h-2.298v-9.42H80.2l.13 1.932Zm-.339 2.437h-.705c0-.656.078-1.26.235-1.81.163-.552.4-1.031.714-1.437.314-.412.7-.732 1.158-.958.464-.226 1.001-.34 1.61-.34.424 0 .813.064 1.167.192.354.122.659.316.914.583.262.262.462.604.601 1.028.14.418.21.92.21 1.506v6.286h-2.3V7.026c0-.441-.063-.787-.19-1.036a1.034 1.034 0 0 0-.532-.523 2.026 2.026 0 0 0-.836-.156c-.36 0-.67.072-.931.217-.256.14-.468.334-.636.584-.162.25-.284.537-.365.862a4.65 4.65 0 0 0-.114 1.053ZM85.72 7.6l-.949.175a5.899 5.899 0 0 1 .244-1.663c.156-.523.386-.978.688-1.367a3.209 3.209 0 0 1 1.14-.923c.459-.226.987-.34 1.585-.34.464 0 .882.067 1.253.2.377.128.7.334.967.619.267.278.47.641.61 1.088.144.447.217.993.217 1.637v6.05h-2.316V7.018c0-.458-.064-.81-.192-1.053a1 1 0 0 0-.53-.505 2.081 2.081 0 0 0-.82-.148c-.318 0-.597.06-.835.183-.232.116-.43.278-.592.487a2.262 2.262 0 0 0-.357.731 3.324 3.324 0 0 0-.113.888Z"/><path fill="url(#f)" d="M95.793 5.668v7.409h-2.298v-9.42h2.159l.139 2.01Zm-.366 2.36h-.679a6.22 6.22 0 0 1 .279-1.864c.18-.557.432-1.036.757-1.437.331-.4.723-.708 1.176-.922a3.49 3.49 0 0 1 1.515-.323c.452 0 .861.064 1.227.192.366.128.679.33.94.61.267.278.47.644.61 1.096.145.447.217.999.217 1.655v6.042h-2.315v-6.06c0-.43-.064-.769-.192-1.018a1.068 1.068 0 0 0-.54-.532c-.232-.104-.52-.156-.862-.156a1.92 1.92 0 0 0-.931.217c-.261.14-.482.334-.662.584-.174.25-.308.537-.4.862-.093.325-.14.676-.14 1.053Z"/><path fill="url(#g)" d="M105.936 3.657v9.42h-2.307v-9.42h2.307Zm-2.464-2.464c0-.343.116-.627.348-.853.238-.227.557-.34.958-.34.4 0 .717.113.949.34.238.226.357.51.357.853 0 .336-.119.618-.357.844-.232.227-.549.34-.949.34-.401 0-.72-.113-.958-.34a1.132 1.132 0 0 1-.348-.844Z"/><path fill="url(#h)" d="M113.318 11.074V6.73c0-.32-.055-.595-.165-.827a1.196 1.196 0 0 0-.505-.54c-.226-.128-.514-.192-.862-.192-.307 0-.577.053-.809.157a1.192 1.192 0 0 0-.523.444c-.122.186-.183.4-.183.644h-2.307c0-.388.093-.757.279-1.105.186-.354.45-.668.792-.94a3.899 3.899 0 0 1 1.245-.653 5.336 5.336 0 0 1 1.637-.236c.714 0 1.349.122 1.906.366a2.899 2.899 0 0 1 1.324 1.08c.325.481.487 1.088.487 1.82v4.109c0 .47.029.873.087 1.21.064.33.157.618.279.862v.148h-2.342a3.481 3.481 0 0 1-.252-.906 7.106 7.106 0 0 1-.088-1.097Zm.323-3.735.017 1.367h-1.454c-.36 0-.676.038-.949.113a1.75 1.75 0 0 0-.67.314 1.272 1.272 0 0 0-.392.487 1.482 1.482 0 0 0-.131.636c0 .232.053.441.157.627.11.185.267.333.47.444.209.104.453.156.732.156.406 0 .76-.08 1.062-.243.302-.169.537-.372.705-.61.168-.238.258-.464.27-.679l.661.993c-.081.238-.203.49-.365.757a3.436 3.436 0 0 1-.627.749 3.185 3.185 0 0 1-.923.574c-.36.151-.778.227-1.254.227-.609 0-1.155-.122-1.636-.366a2.903 2.903 0 0 1-1.141-1.001 2.576 2.576 0 0 1-.418-1.445c0-.5.093-.94.279-1.324.186-.383.461-.705.827-.966.366-.267.818-.467 1.358-.6.546-.14 1.17-.21 1.872-.21h1.55Z"/><defs><linearGradient id="a" x1="116.034" x2="42.633" y1="6.539" y2="6.539" gradientUnits="userSpaceOnUse"><stop stop-color="#AA50FF"/><stop offset="1" stop-color="#4000BF"/></linearGradient><linearGradient id="b" x1="116.034" x2="42.633" y1="6.539" y2="6.539" gradientUnits="userSpaceOnUse"><stop stop-color="#AA50FF"/><stop offset="1" stop-color="#4000BF"/></linearGradient><linearGradient id="c" x1="116.034" x2="42.633" y1="6.539" y2="6.539" gradientUnits="userSpaceOnUse"><stop stop-color="#AA50FF"/><stop offset="1" stop-color="#4000BF"/></linearGradient><linearGradient id="d" x1="116.034" x2="42.633" y1="6.539" y2="6.539" gradientUnits="userSpaceOnUse"><stop stop-color="#AA50FF"/><stop offset="1" stop-color="#4000BF"/></linearGradient><linearGradient id="e" x1="116.034" x2="42.633" y1="6.539" y2="6.539" gradientUnits="userSpaceOnUse"><stop stop-color="#AA50FF"/><stop offset="1" stop-color="#4000BF"/></linearGradient><linearGradient id="f" x1="116.034" x2="42.633" y1="6.539" y2="6.539" gradientUnits="userSpaceOnUse"><stop stop-color="#AA50FF"/><stop offset="1" stop-color="#4000BF"/></linearGradient><linearGradient id="g" x1="116.034" x2="42.633" y1="6.539" y2="6.539" gradientUnits="userSpaceOnUse"><stop stop-color="#AA50FF"/><stop offset="1" stop-color="#4000BF"/></linearGradient><linearGradient id="h" x1="116.034" x2="42.633" y1="6.539" y2="6.539" gradientUnits="userSpaceOnUse"><stop stop-color="#AA50FF"/><stop offset="1" stop-color="#4000BF"/></linearGradient></defs></svg>
